X:1
T:Matildas Schottis
R:Schottis
S:grovt plankad från studentspelmanslaget Lustspel
M:2/4
L:1/8
K:Gm
dd dd | c/d/e d2 | A/B/c B2 | ^F/G/A G2 :|
|:g/>g/g/>g/ ag | f/>f/f/>f/ gf | e/>e/e/>e/ g/g/f/e/ | e/d^c/ dd |
c/>c/c/>c/ dc | B/>B/(c//B//A//B//) cB | Ae d^F | A/G^F/ G2 :|

